Otagle3/Assets/ikonySvG/Delete.svg

<svg id="SVGRoot" width="206px" height="206px" version="1.1" viewBox="0 0 206 206" xmlns="http://www.w3.org/2000/svg">
 <g transform="matrix(3.7795 0 0 3.7795 -1099.8 -254.01)">
  <rect x="292.01" y="68.329" width="52.258" height="52.258" fill="#fff" stroke="#000" stroke-linecap="round" stroke-width=".5" style="paint-order:fill markers stroke"/>
  <text x="317.93558" y="117.414" font-family="sans-serif" font-size="6.35px" letter-spacing="0px" stroke-width=".26458" text-align="center" text-anchor="middle" word-spacing="0px" style="line-height:0.94999999" xml:space="preserve"><tspan x="317.93558" y="117.414" font-family="sans-serif" font-size="4.9389px" stroke-width=".26458" text-align="center" text-anchor="middle">Delete</tspan></text>
  <g transform="matrix(.34188 0 0 .34188 301.04 70.806)">
   <path d="m62.2 42-8 8 8 8-4.2 4.2-8-8-8 8-4.2-4.2 8-8-8-8 4.2-4.2 8 8 8-8zm27.3 8c0 21.8-17.7 39.5-39.5 39.5s-39.5-17.7-39.5-39.5 17.7-39.5 39.5-39.5 39.5 17.7 39.5 39.5zm-5.9 0c0-18.5-15.1-33.6-33.6-33.6s-33.6 15.1-33.6 33.6 15.1 33.6 33.6 33.6 33.6-15.1 33.6-33.6z"/>
  </g>
 </g>
</svg>

<?xml version="1.0" encoding="UTF-8" standalone="no"?>
<svg
   xmlns:dc="http://purl.org/dc/elements/1.1/"
   xmlns:cc="http://creativecommons.org/ns#"
   xmlns:rdf="http://www.w3.org/1999/02/22-rdf-syntax-ns#"
   xmlns:svg="http://www.w3.org/2000/svg"
   xmlns="http://www.w3.org/2000/svg"
   id="svg47"
   version="1.1"
   viewBox="0 0 52.758294 52.758296"
   height="199.40143"
   width="199.40143">
  <defs
     id="defs42">
    <pattern
       id="EMFhbasepattern"
       patternUnits="userSpaceOnUse"
       width="6"
       height="6"
       x="0"
       y="0" />
  </defs>
  <metadata
     id="metadata45">
    <rdf:RDF>
      <cc:Work
         rdf:about="">
        <dc:format>image/svg+xml</dc:format>
        <dc:type
           rdf:resource="http://purl.org/dc/dcmitype/StillImage" />
        <dc:title></dc:title>
      </cc:Work>
    </rdf:RDF>
  </metadata>
  <g
     id="g7163"
     transform="translate(-291.81271,-67.931201)">
    <rect
       height="52.258293"
       y="68.328804"
       x="292.00964"
       width="52.258293"
       id="rect833-1-5-3-8-4"
       style="fill:#ffffff;stroke:#000000;stroke-width:0.49999899;stroke-linecap:round;stroke-miterlimit:4;stroke-dasharray:none;stroke-opacity:1;paint-order:fill markers stroke" />
    <text
       id="text898-7-3-6-9-1"
       y="118.01699"
       x="317.93558"
       style="font-size:6.3499999px;line-height:0.94999999;font-family:voestalpine;-inkscape-font-specification:voestalpine;text-align:center;letter-spacing:0px;word-spacing:0px;text-anchor:middle;stroke-width:0.26458299"
       xml:space="preserve"><tspan
         id="tspan900-6-1-6-2-8"
         style="font-size:6.3499999px;text-align:center;text-anchor:middle;stroke-width:0.26458299"
         y="118.01699"
         x="317.93558">Delete</tspan></text>
    <g
       transform="matrix(0.34187779,0,0,0.34187779,301.04489,70.806424)"
       id="g7479"
       style="fill:#000000">
      <path
         d="m 62.2,42 -8,8 8,8 -4.2,4.2 -8,-8 -8,8 -4.2,-4.2 8,-8 -8,-8 4.2,-4.2 8,8 8,-8 z m 27.3,8 C 89.5,71.8 71.8,89.5 50,89.5 28.2,89.5 10.5,71.8 10.5,50 10.5,28.2 28.2,10.5 50,10.5 71.8,10.5 89.5,28.2 89.5,50 Z m -5.9,0 C 83.6,31.5 68.5,16.4 50,16.4 31.5,16.4 16.4,31.5 16.4,50 16.4,68.5 31.5,83.6 50,83.6 68.5,83.6 83.6,68.5 83.6,50 Z"
         id="path7468" />
    </g>
  </g>
</svg>
